app/img/svg/footer-icon-btn-fb.svg

<?xml version="1.0" encoding="UTF-8"?>
<svg viewBox="0 0 24 24" version="1.1" xmlns="http://www.w3.org/2000/svg" xmlns:xlink="http://www.w3.org/1999/xlink">
    <defs>
        <polygon id="path-1" points="23.85105 24 0 24 0 0.00045 23.85105 0.00045"></polygon>
    </defs>
    <g id="Landing-64" stroke="none" stroke-width="1" fill="none" fill-rule="evenodd">
        <g id="Desktop-1248-13-(choose-device)" transform="translate(-143.000000, -4084.000000)">
            <g id="footer-icon-btn-fb" transform="translate(143.000000, 4084.000000)">
                <mask id="mask-2" fill="white">
                    <use xlink:href="#path-1"></use>
                </mask>
                <g id="Clip-2"></g>
                <path d="M13.11105,14.96295 L10.07355,11.70345 L4.14855,14.96295 L10.66605,7.99995 L13.77705,11.25945 L19.63005,7.99995 L13.11105,14.96295 Z M11.92605,0.00045 C5.33955,0.00045 -0.00045,4.97445 -0.00045,11.11095 C-0.00045,14.60745 1.73355,17.72745 4.44405,19.76295 L4.44405,24.00045 L8.50455,21.75795 C9.58905,22.05945 10.73655,22.22295 11.92605,22.22295 C18.51255,22.22295 23.85105,17.24745 23.85105,11.11095 C23.85105,4.97445 18.51255,0.00045 11.92605,0.00045 L11.92605,0.00045 Z" id="Fill-1" fill="#FFFFFF" mask="url(#mask-2)"></path>
            </g>
        </g>
    </g>
</svg>

<svg viewBox="0 0 24 24" xmlns="http://www.w3.org/2000/svg" xmlns:xlink="http://www.w3.org/1999/xlink">
    <defs>
        <path id="a" d="M23.851 24H0V0h23.851z"/>
    </defs>
    <g fill="none" fill-rule="evenodd">
        <mask id="b" fill="#fff">
            <use xlink:href="#a"/>
        </mask>
        <path d="M13.111 14.963l-3.037-3.26-5.925 3.26L10.666 8l3.111 3.26L19.63 8l-6.519 6.963zM11.926 0C5.34 0 0 4.974 0 11.111c0 3.496 1.734 6.616 4.444 8.652V24l4.06-2.242c1.085.301 2.233.465 3.422.465 6.587 0 11.925-4.976 11.925-11.112 0-6.137-5.338-11.11-11.925-11.11z" fill="#FFF" mask="url(#b)"/>
    </g>
</svg>
